assets/images/whatsapp-icon-muow.svg

<svg width="30" height="30" viewBox="0 0 30 30" fill="none" xmlns="http://www.w3.org/2000/svg">
<path d="M13.9914 0.428314C6.19412 0.799578 0.040928 7.29324 0.0645821 15.0994C0.0717843 17.477 0.645768 19.7211 1.65831 21.7039L0.1037 29.2502C0.0196039 29.6584 0.387761 30.0158 0.793271 29.9197L8.1877 28.1679C10.0874 29.1142 12.2213 29.6608 14.4796 29.6952C22.4492 29.8169 29.0944 23.4889 29.3429 15.5222C29.6091 6.98249 22.561 0.0201914 13.9914 0.428314ZM22.8146 23.1614C20.6491 25.3269 17.7698 26.5195 14.7074 26.5195C12.9142 26.5195 11.1974 26.1172 9.60448 25.3237L8.57471 24.8107L4.04116 25.8848L4.99545 21.2524L4.48812 20.2589C3.66121 18.6395 3.24194 16.8883 3.24194 15.0541C3.24194 11.9915 4.43453 9.11235 6.60005 6.94676C8.74622 4.80059 11.6724 3.58858 14.7076 3.58858C17.77 3.58865 20.6491 4.78124 22.8147 6.94669C24.9802 9.11221 26.1728 11.9914 26.1728 15.0539C26.1728 18.0891 24.9608 21.0153 22.8146 23.1614Z" fill="white"/>
<path d="M21.8138 18.2296L18.9775 17.4152C18.6046 17.3081 18.203 17.4139 17.9313 17.6907L17.2377 18.3974C16.9453 18.6954 16.5015 18.7911 16.1144 18.6345C14.7727 18.0915 11.9503 15.5821 11.2295 14.3268C11.0215 13.9648 11.0559 13.5121 11.3113 13.1817L11.9168 12.3983C12.154 12.0913 12.2041 11.6791 12.0472 11.3243L10.8539 8.62541C10.5681 7.97898 9.74203 7.79081 9.20236 8.24723C8.41076 8.91674 7.47151 9.93416 7.35734 11.0613C7.15603 13.0485 8.00828 15.5536 11.2311 18.5616C14.9543 22.0366 17.9359 22.4957 19.8772 22.0255C20.9782 21.7588 21.8582 20.6896 22.4135 19.8142C22.7921 19.2173 22.4932 18.4247 21.8138 18.2296Z" fill="white"/>
</svg>

<svg width="30" height="30" fill="none" xmlns="http://www.w3.org/2000/svg"><path d="M13.991.428C6.194.8.041 7.293.065 15.1a14.578 14.578 0 001.593 6.605L.104 29.25a.57.57 0 00.69.67l7.394-1.752c1.9.946 4.033 1.493 6.292 1.527 7.97.122 14.614-6.206 14.863-14.173C29.609 6.982 22.56.02 13.99.428zm8.824 22.733a11.39 11.39 0 01-8.108 3.358c-1.793 0-3.51-.402-5.103-1.195l-1.03-.513-4.533 1.074.954-4.633-.507-.993a11.337 11.337 0 01-1.246-5.205A11.39 11.39 0 016.6 6.947a11.486 11.486 0 018.108-3.358 11.39 11.39 0 018.107 3.358 11.39 11.39 0 013.358 8.107c0 3.035-1.212 5.961-3.358 8.107z" fill="#fff"/><path d="M21.814 18.23l-2.837-.815a1.057 1.057 0 00-1.046.276l-.693.706a1.033 1.033 0 01-1.124.238c-1.341-.544-4.164-3.053-4.885-4.308a1.033 1.033 0 01.082-1.145l.606-.784c.237-.307.287-.719.13-1.074l-1.193-2.699a1.058 1.058 0 00-1.652-.378c-.791.67-1.73 1.687-1.845 2.814-.201 1.988.651 4.493 3.874 7.5 3.723 3.476 6.705 3.935 8.646 3.465 1.101-.267 1.981-1.336 2.537-2.212.378-.597.08-1.39-.6-1.584z" fill="#fff"/></svg>
